logos/drip.svg

<?xml version="1.0" encoding="UTF-8"?>
<svg width="512px" height="183px" viewBox="0 0 512 183" version="1.1" xmlns="http://www.w3.org/2000/svg" xmlns:xlink="http://www.w3.org/1999/xlink" preserveAspectRatio="xMidYMid">
    <g>
        <path d="M455.314286,36.5714286 C471.771429,36.5714286 485.790476,42.0571429 496.152381,51.8095238 C506.514286,61.5619048 512,75.5809524 512,92.0380952 C512,109.104762 506.514286,122.514286 496.152381,132.266667 C485.790476,142.019048 471.771429,147.504762 454.704762,147.504762 C437.638095,147.504762 425.447619,142.019048 414.47619,129.828571 L414.47619,182.857143 L394.971429,182.857143 L394.971429,39.0095238 L414.47619,39.0095238 L414.47619,54.8571429 C424.228571,43.2761905 437.028571,36.5714286 455.314286,36.5714286 Z M248.685714,0 L248.685714,143.238095 L229.180952,143.238095 L229.180952,127.390476 C218.819048,140.190476 204.8,146.285714 188.342857,146.285714 C171.885714,146.285714 157.257143,140.8 147.504762,131.047619 C137.752381,121.295238 131.657143,107.27619 131.657143,90.8190476 C131.657143,73.752381 137.142857,60.3428571 147.504762,50.5904762 C157.866667,40.8380952 171.885714,35.352381 188.342857,35.352381 C206.019048,35.352381 218.209524,40.8380952 229.180952,53.0285714 L229.180952,0 L248.685714,0 Z M336.457143,36.5714286 L336.457143,54.247619 L289.52381,54.247619 L289.52381,146.285714 L270.628571,146.285714 L270.628571,36.5714286 L336.457143,36.5714286 Z M371.2,37.7904762 L371.2,146.285714 L352.914286,146.285714 L352.914286,37.7904762 L371.2,37.7904762 Z M16.4571429,88.3809524 L16.4571429,90.2095238 C16.4571429,114.590476 36.5714286,129.219048 54.8571429,129.219048 C73.1428571,129.219048 93.2571429,114.590476 93.2571429,90.2095238 L93.2571429,90.2095238 L93.2571429,88.3809524 L109.714286,88.3809524 L109.714286,88.3809524 L109.714286,90.2095238 C109.714286,123.733333 82.2857143,145.67619 54.8571429,145.67619 C27.4285714,145.67619 0,123.733333 0,90.2095238 L0,90.2095238 L0,88.3809524 L16.4571429,88.3809524 L16.4571429,88.3809524 Z M452.87619,54.247619 C429.104762,54.247619 414.47619,68.2666667 414.47619,92.0380952 C414.47619,115.809524 429.104762,130.438095 452.87619,130.438095 C477.257143,130.438095 491.885714,116.419048 491.885714,92.0380952 C491.885714,68.2666667 477.257143,54.247619 452.87619,54.247619 Z M190.171429,52.4190476 C166.4,52.4190476 151.771429,66.4380952 151.771429,90.8190476 C151.771429,114.590476 166.4,128.609524 190.171429,128.609524 C214.552381,128.609524 229.180952,114.590476 229.180952,90.8190476 C229.180952,67.047619 214.552381,52.4190476 190.171429,52.4190476 Z M21.9428571,51.8095238 C28.0022098,51.8095238 32.9142857,56.7215997 32.9142857,62.7809524 C32.9142857,68.8403051 28.0022098,73.752381 21.9428571,73.752381 C15.8835045,73.752381 10.9714286,68.8403051 10.9714286,62.7809524 C10.9714286,56.7215997 15.8835045,51.8095238 21.9428571,51.8095238 Z M54.8571429,51.8095238 C60.9164955,51.8095238 65.8285714,56.7215997 65.8285714,62.7809524 C65.8285714,68.8403051 60.9164955,73.752381 54.8571429,73.752381 C48.7977902,73.752381 43.8857143,68.8403051 43.8857143,62.7809524 C43.8857143,56.7215997 48.7977902,51.8095238 54.8571429,51.8095238 Z M87.7714286,51.8095238 C93.8307813,51.8095238 98.7428571,56.7215997 98.7428571,62.7809524 C98.7428571,68.8403051 93.8307813,73.752381 87.7714286,73.752381 C81.7120759,73.752381 76.8,68.8403051 76.8,62.7809524 C76.8,56.7215997 81.7120759,51.8095238 87.7714286,51.8095238 Z M54.8571429,0 C67.047619,10.9714286 77.4095238,23.7714286 87.1619048,36.5714286 L87.1619048,36.5714286 L66.4380952,36.5714286 L54.8571429,20.7238095 L43.2761905,36.5714286 L22.552381,36.5714286 C32.3047619,23.7714286 42.6666667,10.9714286 54.8571429,0 Z M367.542857,1.82857143 C371.2,3.65714286 373.028571,7.31428571 373.028571,11.5809524 C373.028571,15.847619 371.2,20.1142857 367.542857,21.9428571 C363.885714,24.3809524 360.228571,24.3809524 356.571429,21.9428571 C352.914286,20.1142857 351.085714,15.847619 351.085714,11.5809524 C351.085714,7.31428571 352.914286,3.65714286 356.571429,1.82857143 C360.228571,-0.60952381 363.885714,-0.60952381 367.542857,1.82857143 Z" fill="#000000"></path>
    </g>
</svg>

<svg preserveAspectRatio="xMidYMid" viewBox="0 0 512 183" xmlns="http://www.w3.org/2000/svg">
  <path d="M455.314 36.571c16.457 0 30.476 5.486 40.838 15.239C506.514 61.562 512 75.58 512 92.038c0 17.067-5.486 30.476-15.848 40.229-10.362 9.752-24.38 15.238-41.447 15.238-17.067 0-29.257-5.486-40.229-17.676v53.028h-19.505V39.01h19.505v15.847c9.753-11.58 22.553-18.286 40.838-18.286ZM248.686 0v143.238H229.18V127.39c-10.362 12.8-24.381 18.896-40.838 18.896s-31.086-5.486-40.838-15.238c-9.753-9.753-15.848-23.772-15.848-40.229 0-17.067 5.486-30.476 15.848-40.229 10.362-9.752 24.38-15.238 40.838-15.238 17.676 0 29.867 5.486 40.838 17.677V0h19.505Zm87.771 36.571v17.677h-46.933v92.038h-18.895V36.57h65.828Zm34.743 1.22v108.495h-18.286V37.79H371.2ZM16.457 88.38v1.829c0 24.38 20.114 39.009 38.4 39.009 18.286 0 38.4-14.629 38.4-39.01V88.38h16.457v1.829c0 33.523-27.428 55.466-54.857 55.466C27.43 145.676 0 123.733 0 90.21v-1.83h16.457Zm436.42-34.133c-23.772 0-38.4 14.019-38.4 37.79 0 23.772 14.628 38.4 38.4 38.4 24.38 0 39.009-14.019 39.009-38.4 0-23.771-14.629-37.79-39.01-37.79ZM190.17 52.419c-23.771 0-38.4 14.02-38.4 38.4 0 23.771 14.629 37.79 38.4 37.79 24.381 0 39.01-14.019 39.01-37.79s-14.629-38.4-39.01-38.4Zm-168.228-.61c6.06 0 10.971 4.913 10.971 10.972 0 6.06-4.912 10.971-10.971 10.971-6.06 0-10.972-4.912-10.972-10.971 0-6.06 4.913-10.971 10.972-10.971Zm32.914 0c6.06 0 10.972 4.913 10.972 10.972 0 6.06-4.913 10.971-10.972 10.971-6.06 0-10.971-4.912-10.971-10.971 0-6.06 4.912-10.971 10.971-10.971Zm32.914 0c6.06 0 10.972 4.913 10.972 10.972 0 6.06-4.912 10.971-10.972 10.971-6.059 0-10.971-4.912-10.971-10.971 0-6.06 4.912-10.971 10.971-10.971ZM54.857 0c12.19 10.971 22.553 23.771 32.305 36.571H66.438l-11.58-15.847L43.275 36.57H22.552c9.753-12.8 20.115-25.6 32.305-36.571Zm312.686 1.829c3.657 1.828 5.486 5.485 5.486 9.752s-1.829 8.533-5.486 10.362c-3.657 2.438-7.314 2.438-10.972 0-3.657-1.829-5.485-6.095-5.485-10.362s1.828-7.924 5.485-9.752c3.658-2.439 7.315-2.439 10.972 0Z"/>
</svg>
